; generated by PrusaSlicer 2.4.0+win64 on 2022-06-07 at 00:12:52 UTC

; external perimeters extrusion width = 0.45mm
; perimeters extrusion width = 0.45mm
; infill extrusion width = 0.45mm
; solid infill extrusion width = 0.45mm
; top infill extrusion width = 0.40mm
; first layer extrusion width = 0.42mm

M201 X500 Y500 Z100 E5000 ; sets maximum accelerations, mm/sec^2
M203 X500 Y500 Z10 E60 ; sets maximum feedrates, mm/sec
M204 P500 R1000 T500 ; sets acceleration (P, T) and retract acceleration (R), mm/sec^2
M205 X8.00 Y8.00 Z0.40 E5.00 ; sets the jerk limits, mm/sec
M205 S0 T0 ; sets the minimum extruding and travel feed rate, mm/sec
M107

;TYPE:Custom
G90 ; use absolute coordinates
M83 ; extruder relative mode
M104 S210 ; set extruder temp
M140 S60 ; set bed temp
M190 S60 ; wait for bed temp
M109 S210 ; wait for extruder temp
G28 ; home all
G1 Z2 F240
G1 X2 Y10 F3000
G1 Z0.28 F240
G92 E0
G1 Y190 E15 F1500 ; intro line
G1 X2.3 F5000
G92 E0
G1 Y10 E15 F1200 ; intro line
G92 E0
G21 ; set units to millimeters
G90 ; use absolute coordinates
M83 ; use relative distances for extrusion

; Filament gcode
M107
;LAYER_CHANGE
;Z:0.2
;HEIGHT:0.2

;BEFORE_LAYER_CHANGE
G92 E0
;0.2
G1 E-5 F3600
G1 Z.2 F9000

;AFTER_LAYER_CHANGE
;0.2
G1 X108.844 Y107.842
G1 E5 F2400

;TYPE:Skirt/Brim
;WIDTH:0.42
G1 F933
G1 X110.5 Y107.369 E.054
G1 X120.5 Y107.369 E.31354
G1 X122.02 Y107.762 E.04923
G1 X123.158 Y108.844 E.04923
G1 X123.631 Y110.5 E.054
G1 X123.631 Y120.5 E.31354
G1 X123.238 Y122.02 E.04923
G1 X122.156 Y123.158 E.04923
G1 X120.5 Y123.631 E.054
G1 X110.5 Y123.631 E.31354
G1 X108.98 Y123.238 E.04923
G1 X107.842 Y122.156 E.04923
G1 X107.369 Y120.5 E.054
G1 X107.369 Y110.5 E.31354
G1 X107.762 Y108.98 E.04923
G1 X108.803 Y107.886 E.04735
G1 X109.085 Y108.183 F9000
G1 F933
G1 X109.205 Y108.069 E.00517
G1 X110.5 Y107.746 E.04186
G1 X120.5 Y107.746 E.31354
G1 X121.917 Y108.139 E.04612
G1 X122.931 Y109.205 E.04612
G1 X123.254 Y110.5 E.04186
G1 X123.254 Y120.5 E.31354
G1 X122.861 Y121.917 E.04612
G1 X121.795 Y122.931 E.04612
G1 X120.5 Y123.254 E.04186
G1 X110.5 Y123.254 E.31354
G1 X109.083 Y122.861 E.04612
G1 X108.069 Y121.795 E.04612
G1 X107.746 Y120.5 E.04186
G1 X107.746 Y110.5 E.31354
G1 X108.139 Y109.083 E.04612
G1 X109.042 Y108.224 E.03907
G1 X109.301 Y108.534 F9000
G1 F933
G1 X109.56 Y108.317 E.0106
G1 X110.5 Y108.123 E.03008
G1 X120.5 Y108.123 E.31354
G1 X121.807 Y108.515 E.04278
G1 X122.683 Y109.56 E.04278
G1 X122.877 Y110.5 E.03008
G1 X122.877 Y120.5 E.31354
G1 X122.485 Y121.807 E.04278
G1 X121.44 Y122.683 E.04278
G1 X120.5 Y122.877 E.03008
G1 X110.5 Y122.877 E.31354
G1 X109.193 Y122.485 E.04278
G1 X108.317 Y121.44 E.04278
G1 X108.123 Y120.5 E.03008
G1 X108.123 Y110.5 E.31354
G1 X108.515 Y109.193 E.04278
G1 X109.255 Y108.572 E.0303
G1 E-3.5 F3600

;WIPE_START
G1 F7200
G1 X109.56 Y108.317 E-.1891
G1 X110.5 Y108.123 E-.45576
G1 X112.142 Y108.123 E-.78014
;WIPE_END

G1 E-.075 F3600
G1 X111.39 Y111.39 F9000
G1 E5 F2400

;TYPE:External perimeter
G1 F933
G1 X119.61 Y111.39 E.25773
G1 X119.61 Y119.61 E.25773
G1 X111.39 Y119.61 E.25773
G1 X111.39 Y111.45 E.25585
G1 X111.286 Y111.004 F9000
G1 X110.81 Y110.81
G1 F933
G1 X120.19 Y110.81 E.2941
G1 X120.19 Y120.19 E.2941
G1 X110.81 Y120.19 E.2941
G1 X110.81 Y110.87 E.29222
G1 X111.196 Y110.914 F9000
G1 X111.117 Y111.117

;TYPE:Gap fill
;WIDTH:0.280658
G1 F933
G1 X111.201 Y111.1 E.0017
;WIDTH:0.245842
G1 X119.799 Y111.1 E.14506
;WIDTH:0.280658
G1 X119.883 Y111.117 E.0017
;WIDTH:0.280658
G1 X119.9 Y111.201 E.0017
;WIDTH:0.245842
G1 X119.9 Y119.799 E.14506
;WIDTH:0.280658
G1 X119.883 Y119.883 E.0017
;WIDTH:0.280658
G1 X119.799 Y119.9 E.0017
;WIDTH:0.245842
G1 X111.201 Y119.9 E.14506
;WIDTH:0.280658
G1 X111.117 Y119.883 E.0017
;WIDTH:0.280658
G1 X111.1 Y119.799 E.0017
;WIDTH:0.245842
G1 X111.1 Y111.201 E.14506
;WIDTH:0.280658
G1 X111.105 Y111.176 E.00051
G1 E-3.5 F3600

;WIPE_START
G1 F7200;_WIPE
G1 X111.201 Y111.1 E-.05829
;WIPE_END

G1 E-1.44171 F3600
M107

;TYPE:Custom
; Filament-specific end gcode 
;END gcode for filament

G1 Z2.2 F600 ; Move print head up
G1 X5 Y170 F9000 ; present print
G1 Z70.2 F600 ; Move print head further up
M140 S0 ; turn off heatbed
M104 S0 ; turn off temperature
M107 ; turn off fan
M84 X Y E ; disable motors

; filament used [mm] = 8.16
; filament used [cm3] = 0.02
; filament used [g] = 0.02
; filament cost = 0.00
; total filament used [g] = 0.02
; total filament cost = 0.00
; estimated printing time (normal mode) = 46s

; prusaslicer_config = begin
; avoid_crossing_perimeters = 0
; avoid_crossing_perimeters_max_detour = 0
; bed_custom_model = 
; bed_custom_texture = 
; bed_shape = 3x3,228x3,228x228,3x228
; bed_temperature = 60
; before_layer_gcode = ;BEFORE_LAYER_CHANGE\nG92 E0\n;[layer_z]\n\n
; between_objects_gcode = 
; bottom_fill_pattern = monotonic
; bottom_solid_layers = 4
; bottom_solid_min_thickness = 0
; bridge_acceleration = 0
; bridge_angle = 0
; bridge_fan_speed = 100
; bridge_flow_ratio = 0.95
; bridge_speed = 25
; brim_separation = 0
; brim_type = outer_only
; brim_width = 0
; clip_multipart_objects = 1
; color_change_gcode = M600
; compatible_printers_condition_cummulative = "printer_model=~/(ENDER|CR).*/ and nozzle_diameter[0]==0.4";printer_notes=~/.*PRINTER_VENDOR_CREALITY.*/
; complete_objects = 0
; cooling = 1
; cooling_tube_length = 5
; cooling_tube_retraction = 91.5
; default_acceleration = 0
; default_filament_profile = "Generic PLA @CREALITY"
; default_print_profile = 0.16mm OPTIMAL @CREALITY
; deretract_speed = 40
; disable_fan_first_layers = 1
; dont_support_bridges = 1
; draft_shield = disabled
; duplicate_distance = 6
; elefant_foot_compensation = 0.1
; end_filament_gcode = "; Filament-specific end gcode \n;END gcode for filament\n"
; end_gcode = {if max_layer_z < max_print_height}G1 Z{z_offset+min(max_layer_z+2, max_print_height)} F600{endif} ; Move print head up\nG1 X5 Y170 F{travel_speed*60} ; present print\n{if max_layer_z < max_print_height-10}G1 Z{z_offset+min(max_layer_z+70, max_print_height-10)} F600{endif} ; Move print head further up\nM140 S0 ; turn off heatbed\nM104 S0 ; turn off temperature\nM107 ; turn off fan\nM84 X Y E ; disable motors
; ensure_vertical_shell_thickness = 1
; external_perimeter_extrusion_width = 0.45
; external_perimeter_speed = 25
; external_perimeters_first = 0
; extra_loading_move = -2
; extra_perimeters = 0
; extruder_clearance_height = 25
; extruder_clearance_radius = 45
; extruder_colour = #FFFF00
; extruder_offset = 0x0
; extrusion_axis = E
; extrusion_multiplier = 1
; extrusion_width = 0.45
; fan_always_on = 1
; fan_below_layer_time = 100
; filament_colour = #DDDDDD
; filament_cooling_final_speed = 3.4
; filament_cooling_initial_speed = 2.2
; filament_cooling_moves = 4
; filament_cost = 20
; filament_density = 1.24
; filament_diameter = 1.75
; filament_load_time = 0
; filament_loading_speed = 28
; filament_loading_speed_start = 3
; filament_max_volumetric_speed = 15
; filament_minimal_purge_on_wipe_tower = 15
; filament_notes = ""
; filament_ramming_parameters = "120 100 6.6 6.8 7.2 7.6 7.9 8.2 8.7 9.4 9.9 10.0| 0.05 6.6 0.45 6.8 0.95 7.8 1.45 8.3 1.95 9.7 2.45 10 2.95 7.6 3.45 7.6 3.95 7.6 4.45 7.6 4.95 7.6"
; filament_settings_id = "Generic PLA @CREALITY"
; filament_soluble = 0
; filament_spool_weight = 0
; filament_toolchange_delay = 0
; filament_type = PLA
; filament_unload_time = 0
; filament_unloading_speed = 90
; filament_unloading_speed_start = 100
; filament_vendor = Generic
; fill_angle = 45
; fill_density = 20%
; fill_pattern = grid
; first_layer_acceleration = 0
; first_layer_acceleration_over_raft = 0
; first_layer_bed_temperature = 60
; first_layer_extrusion_width = 0.42
; first_layer_height = 0.2
; first_layer_speed = 20
; first_layer_speed_over_raft = 30
; first_layer_temperature = 210
; full_fan_speed_layer = 0
; fuzzy_skin = none
; fuzzy_skin_point_dist = 0.8
; fuzzy_skin_thickness = 0.3
; gap_fill_enabled = 1
; gap_fill_speed = 30
; gcode_comments = 0
; gcode_flavor = marlin
; gcode_label_objects = 0
; gcode_resolution = 0.0125
; high_current_on_filament_swap = 0
; host_type = octoprint
; infill_acceleration = 0
; infill_anchor = 600%
; infill_anchor_max = 50
; infill_every_layers = 1
; infill_extruder = 1
; infill_extrusion_width = 0.45
; infill_first = 0
; infill_only_where_needed = 0
; infill_overlap = 25%
; infill_speed = 50
; interface_shells = 0
; ironing = 0
; ironing_flowrate = 15%
; ironing_spacing = 0.1
; ironing_speed = 15
; ironing_type = top
; layer_gcode = ;AFTER_LAYER_CHANGE\n;[layer_z]
; layer_height = 0.2
; machine_limits_usage = emit_to_gcode
; machine_max_acceleration_e = 5000
; machine_max_acceleration_extruding = 500
; machine_max_acceleration_retracting = 1000
; machine_max_acceleration_travel = 1500,1250
; machine_max_acceleration_x = 500
; machine_max_acceleration_y = 500
; machine_max_acceleration_z = 100
; machine_max_feedrate_e = 60
; machine_max_feedrate_x = 500
; machine_max_feedrate_y = 500
; machine_max_feedrate_z = 10
; machine_max_jerk_e = 5
; machine_max_jerk_x = 8
; machine_max_jerk_y = 8
; machine_max_jerk_z = 0.4
; machine_min_extruding_rate = 0
; machine_min_travel_rate = 0
; max_fan_speed = 100
; max_layer_height = 0.28
; max_print_height = 250
; max_print_speed = 100
; max_volumetric_speed = 0
; min_fan_speed = 100
; min_layer_height = 0.08
; min_print_speed = 15
; min_skirt_length = 4
; mmu_segmented_region_max_width = 0
; notes = 
; nozzle_diameter = 0.4
; only_retract_when_crossing_perimeters = 0
; ooze_prevention = 0
; output_filename_format = {input_filename_base}_{layer_height}mm_{filament_type[0]}_{printer_model}_{print_time}.gcode
; overhangs = 0
; parking_pos_retraction = 92
; pause_print_gcode = 
; perimeter_acceleration = 0
; perimeter_extruder = 1
; perimeter_extrusion_width = 0.45
; perimeter_speed = 40
; perimeters = 2
; physical_printer_settings_id = 
; post_process = 
; print_settings_id = 0.20mm NORMAL @CREALITY
; printer_model = ENDER3
; printer_notes = Don't remove the following keywords! These keywords are used in the "compatible printer" condition of the print and filament profiles to link the particular print and filament profiles to this printer profile.\nPRINTER_VENDOR_CREALITY\nPRINTER_MODEL_ENDER3\nPRINTER_HAS_BOWDEN
; printer_settings_id = Creality Ender-3
; printer_technology = FFF
; printer_variant = 0.4
; printer_vendor = 
; raft_contact_distance = 0.1
; raft_expansion = 1.5
; raft_first_layer_density = 90%
; raft_first_layer_expansion = 3
; raft_layers = 0
; remaining_times = 0
; resolution = 0
; retract_before_travel = 2
; retract_before_wipe = 70%
; retract_layer_change = 1
; retract_length = 5
; retract_length_toolchange = 1
; retract_lift = 0
; retract_lift_above = 0
; retract_lift_below = 0
; retract_restart_extra = 0
; retract_restart_extra_toolchange = 0
; retract_speed = 60
; seam_position = nearest
; silent_mode = 0
; single_extruder_multi_material = 0
; single_extruder_multi_material_priming = 1
; skirt_distance = 2
; skirt_height = 2
; skirts = 1
; slice_closing_radius = 0.049
; slicing_mode = regular
; slowdown_below_layer_time = 20
; small_perimeter_speed = 25
; solid_infill_below_area = 0
; solid_infill_every_layers = 0
; solid_infill_extruder = 1
; solid_infill_extrusion_width = 0.45
; solid_infill_speed = 40
; spiral_vase = 0
; standby_temperature_delta = -5
; start_filament_gcode = "; Filament gcode\n"
; start_gcode = G90 ; use absolute coordinates\nM83 ; extruder relative mode\nM104 S[first_layer_temperature] ; set extruder temp\nM140 S[first_layer_bed_temperature] ; set bed temp\nM190 S[first_layer_bed_temperature] ; wait for bed temp\nM109 S[first_layer_temperature] ; wait for extruder temp\nG28 ; home all\nG1 Z2 F240\nG1 X2 Y10 F3000\nG1 Z0.28 F240\nG92 E0\nG1 Y190 E15 F1500 ; intro line\nG1 X2.3 F5000\nG92 E0\nG1 Y10 E15 F1200 ; intro line\nG92 E0
; support_material = 0
; support_material_angle = 0
; support_material_auto = 1
; support_material_bottom_contact_distance = 0
; support_material_bottom_interface_layers = -1
; support_material_buildplate_only = 0
; support_material_closing_radius = 2
; support_material_contact_distance = 0.15
; support_material_enforce_layers = 0
; support_material_extruder = 0
; support_material_extrusion_width = 0.38
; support_material_interface_contact_loops = 0
; support_material_interface_extruder = 0
; support_material_interface_layers = 2
; support_material_interface_pattern = rectilinear
; support_material_interface_spacing = 0.2
; support_material_interface_speed = 100%
; support_material_pattern = rectilinear
; support_material_spacing = 2
; support_material_speed = 40
; support_material_style = grid
; support_material_synchronize_layers = 0
; support_material_threshold = 45
; support_material_with_sheath = 0
; support_material_xy_spacing = 60%
; temperature = 205
; template_custom_gcode = 
; thick_bridges = 1
; thin_walls = 0
; threads = 8
; thumbnails = 
; toolchange_gcode = 
; top_fill_pattern = monotonic
; top_infill_extrusion_width = 0.4
; top_solid_infill_speed = 30
; top_solid_layers = 5
; top_solid_min_thickness = 0
; travel_speed = 150
; travel_speed_z = 0
; use_firmware_retraction = 0
; use_relative_e_distances = 1
; use_volumetric_e = 0
; variable_layer_height = 1
; wipe = 1
; wipe_into_infill = 0
; wipe_into_objects = 0
; wipe_tower = 0
; wipe_tower_bridging = 10
; wipe_tower_brim_width = 2
; wipe_tower_no_sparse_layers = 0
; wipe_tower_rotation_angle = 0
; wipe_tower_width = 60
; wipe_tower_x = 170
; wipe_tower_y = 140
; wiping_volumes_extruders = 70,70
; wiping_volumes_matrix = 0
; xy_size_compensation = 0
; z_offset = 0
; prusaslicer_config = end
