; generated by PrusaSlicer 2.4.2+linux-x64-GTK2 on 2022-06-16 at 21:14:26 UTC

; 

; external perimeters extrusion width = 0.45mm
; perimeters extrusion width = 0.45mm
; infill extrusion width = 0.45mm
; solid infill extrusion width = 0.45mm
; top infill extrusion width = 0.45mm
; first layer extrusion width = 0.42mm

M107
;TYPE:Custom
G90 ; use absolute coordinates
M83 ; extruder relative mode
M140 S60 ; set final bed temp
M104 S150 ; set temporary nozzle temp to prevent oozing during homing
G4 S10 ; allow partial nozzle warmup
G28 ; home all axis
G1 Z50 F240
G1 X2 Y10 F3000
M104 S210 ; set final nozzle temp
M190 S60 ; wait for bed temp to stabilize
M109 S210 ; wait for nozzle temp to stabilize
G1 Z0.28 F240
G92 E0
G1 Y140 E10 F1500 ; prime the nozzle
G1 X2.3 F5000
G92 E0
G1 Y10 E10 F1200 ; prime the nozzle
G92 E0
G21 ; set units to millimeters
G90 ; use absolute coordinates
M83 ; use relative distances for extrusion
; Filament gcode
M107
;LAYER_CHANGE
;Z:0.2
;HEIGHT:0.2
;BEFORE_LAYER_CHANGE
G92 E0
;0.2


G1 E-5 F3600
G1 Z.2 F9000
;AFTER_LAYER_CHANGE
;0.2
G1 X105.414 Y106.154
G1 E5 F2400
M204 S500
;TYPE:Skirt/Brim
;WIDTH:0.42
G1 F1200
G1 X106.446 Y105.151 E.04513
G1 X107.577 Y104.261 E.04513
G1 X108.796 Y103.495 E.04513
G1 X109.728 Y103.02 E.03282
G1 X111.064 Y102.485 E.04513
G1 X112.449 Y102.092 E.04513
G1 X113.867 Y101.847 E.04513
G1 X115.304 Y101.751 E.04513
G1 X116.219 Y101.778 E.02872
G1 X117.133 Y101.847 E.02872
G1 X118.551 Y102.092 E.04513
G1 X119.936 Y102.485 E.04513
G1 X121.272 Y103.02 E.04513
G1 X122.545 Y103.691 E.04513
G1 X123.74 Y104.492 E.04513
G1 X124.846 Y105.414 E.04513
G1 X125.849 Y106.446 E.04513
G1 X126.739 Y107.577 E.04513
G1 X127.505 Y108.796 E.04513
G1 X128.14 Y110.087 E.04513
G1 X128.637 Y111.438 E.04513
G1 X128.989 Y112.834 E.04513
G1 X129.153 Y113.867 E.03282
G1 X129.249 Y115.304 E.04513
G1 X129.194 Y116.742 E.04513
G1 X128.908 Y118.551 E.05743
G1 X128.515 Y119.936 E.04513
G1 X127.98 Y121.272 E.04513
G1 X127.309 Y122.545 E.04513
G1 X126.508 Y123.74 E.04513
G1 X125.586 Y124.846 E.04513
G1 X124.554 Y125.849 E.04513
G1 X123.423 Y126.739 E.04513
G1 X122.204 Y127.505 E.04513
G1 X120.913 Y128.14 E.04513
G1 X119.562 Y128.637 E.04513
G1 X118.551 Y128.908 E.03282
G1 X117.133 Y129.153 E.04513
G1 X115.696 Y129.249 E.04513
G1 X114.258 Y129.194 E.04513
G1 X112.834 Y128.989 E.04513
G1 X111.438 Y128.637 E.04513
G1 X110.087 Y128.14 E.04513
G1 X109.262 Y127.743 E.02872
G1 X108.455 Y127.309 E.02872
G1 X107.26 Y126.508 E.04513
G1 X106.154 Y125.586 E.04513
G1 X105.151 Y124.554 E.04513
G1 X104.261 Y123.423 E.04513
G1 X103.495 Y122.204 E.04513
G1 X102.86 Y120.913 E.04513
G1 X102.363 Y119.562 E.04513
G1 X102.011 Y118.166 E.04513
G1 X101.847 Y117.133 E.03282
G1 X101.751 Y115.696 E.04513
G1 X101.806 Y114.258 E.04513
G1 X102.092 Y112.449 E.05743
G1 X102.485 Y111.064 E.04513
G1 X103.02 Y109.728 E.04513
G1 X103.691 Y108.455 E.04513
G1 X104.492 Y107.26 E.04513
G1 X105.376 Y106.2 E.04325
G1 X105.664 Y106.44 F9000
G1 F1200
G1 X106.683 Y105.444 E.04469
G1 X107.783 Y104.578 E.04389
G1 X108.967 Y103.831 E.04389
G1 X109.899 Y103.356 E.03282
G1 X111.2 Y102.837 E.04389
G1 X112.547 Y102.457 E.04389
G1 X113.926 Y102.219 E.04389
G1 X115.323 Y102.128 E.04389
G1 X116.199 Y102.155 E.02748
G1 X117.074 Y102.219 E.02748
G1 X118.453 Y102.457 E.04389
G1 X119.8 Y102.837 E.04389
G1 X121.101 Y103.356 E.04389
G1 X122.339 Y104.007 E.04389
G1 X123.503 Y104.785 E.04389
G1 X124.579 Y105.681 E.04389
G1 X125.556 Y106.683 E.04389
G1 X126.422 Y107.783 E.04389
G1 X127.169 Y108.967 E.04389
G1 X127.788 Y110.222 E.04389
G1 X128.273 Y111.536 E.04389
G1 X128.617 Y112.893 E.04389
G1 X128.781 Y113.926 E.03282
G1 X128.872 Y115.323 E.04389
G1 X128.818 Y116.722 E.04389
G1 X128.543 Y118.453 E.05496
G1 X128.163 Y119.8 E.04389
G1 X127.644 Y121.101 E.04389
G1 X126.993 Y122.339 E.04389
G1 X126.215 Y123.503 E.04389
G1 X125.319 Y124.579 E.04389
G1 X124.317 Y125.556 E.04389
G1 X123.217 Y126.422 E.04389
G1 X122.033 Y127.169 E.04389
G1 X120.778 Y127.788 E.04389
G1 X119.464 Y128.273 E.04389
G1 X118.453 Y128.543 E.03282
G1 X117.074 Y128.781 E.04389
G1 X115.677 Y128.872 E.04389
G1 X114.278 Y128.818 E.04389
G1 X112.893 Y128.617 E.04389
G1 X111.536 Y128.273 E.04389
G1 X110.222 Y127.788 E.04389
G1 X109.433 Y127.407 E.02748
G1 X108.661 Y126.993 E.02748
G1 X107.497 Y126.215 E.04389
G1 X106.421 Y125.319 E.04389
G1 X105.444 Y124.317 E.04389
G1 X104.578 Y123.217 E.04389
G1 X103.831 Y122.033 E.04389
G1 X103.212 Y120.778 E.04389
G1 X102.727 Y119.464 E.04389
G1 X102.383 Y118.107 E.04389
G1 X102.219 Y117.074 E.03282
G1 X102.128 Y115.677 E.04389
G1 X102.182 Y114.278 E.04389
G1 X102.457 Y112.547 E.05496
G1 X102.837 Y111.2 E.04389
G1 X103.356 Y109.899 E.04389
G1 X104.007 Y108.661 E.04389
G1 X104.785 Y107.497 E.04389
G1 X105.626 Y106.486 E.04121
G1 E-3.5 F3600
;WIPE_START
G1 F7200
G1 X106.683 Y105.444 E-.70535
G1 X107.783 Y104.578 E-.66492
G1 X107.88 Y104.516 E-.05473
;WIPE_END
G1 E-.075 F3600
G1 X109.328 Y109.97 F9000
G1 E5 F2400
;TYPE:Perimeter
G1 F1200
G1 X109.954 Y109.341 E.02782
G1 X110.628 Y108.795 E.0272
G1 X111.356 Y108.322 E.0272
G1 X112.129 Y107.929 E.0272
G1 X112.939 Y107.618 E.0272
G1 X113.777 Y107.393 E.0272
G1 X114.634 Y107.257 E.0272
G1 X115.5 Y107.212 E.0272
G1 X116.366 Y107.257 E.0272
G1 X117.223 Y107.393 E.0272
G1 X118.061 Y107.618 E.0272
G1 X118.871 Y107.929 E.0272
G1 X119.644 Y108.322 E.0272
G1 X120.372 Y108.795 E.0272
G1 X121.046 Y109.341 E.0272
G1 X121.659 Y109.954 E.0272
G1 X122.205 Y110.628 E.0272
G1 X122.678 Y111.356 E.0272
G1 X123.071 Y112.129 E.0272
G1 X123.382 Y112.939 E.0272
G1 X123.607 Y113.777 E.0272
G1 X123.743 Y114.634 E.0272
G1 X123.788 Y115.5 E.0272
G1 X123.743 Y116.366 E.0272
G1 X123.607 Y117.223 E.0272
G1 X123.382 Y118.061 E.0272
G1 X123.071 Y118.871 E.0272
G1 X122.678 Y119.644 E.0272
G1 X122.205 Y120.372 E.0272
G1 X121.659 Y121.046 E.0272
G1 X121.046 Y121.659 E.0272
G1 X120.372 Y122.205 E.0272
G1 X119.644 Y122.678 E.0272
G1 X118.871 Y123.071 E.0272
G1 X118.061 Y123.382 E.0272
G1 X117.223 Y123.607 E.0272
G1 X116.366 Y123.743 E.0272
G1 X115.5 Y123.788 E.0272
G1 X114.634 Y123.743 E.0272
G1 X113.777 Y123.607 E.0272
G1 X112.939 Y123.382 E.0272
G1 X112.129 Y123.071 E.0272
G1 X111.356 Y122.678 E.0272
G1 X110.628 Y122.205 E.0272
G1 X109.954 Y121.659 E.0272
G1 X109.341 Y121.046 E.0272
G1 X108.795 Y120.372 E.0272
G1 X108.322 Y119.644 E.0272
G1 X107.929 Y118.871 E.0272
G1 X107.618 Y118.061 E.0272
G1 X107.393 Y117.223 E.0272
G1 X107.257 Y116.366 E.0272
G1 X107.212 Y115.5 E.0272
G1 X107.257 Y114.634 E.0272
G1 X107.393 Y113.777 E.0272
G1 X107.618 Y112.939 E.0272
G1 X107.929 Y112.129 E.0272
G1 X108.322 Y111.356 E.0272
G1 X108.795 Y110.628 E.0272
G1 X109.291 Y110.016 E.0247
G1 X109.621 Y110.207 F9000
;TYPE:External perimeter
G1 F1200
G1 X110.207 Y109.621 E.02596
G1 X110.85 Y109.1 E.02596
G1 X111.545 Y108.649 E.02596
G1 X112.283 Y108.273 E.02596
G1 X113.056 Y107.977 E.02596
G1 X113.855 Y107.762 E.02596
G1 X114.673 Y107.633 E.02596
G1 X115.5 Y107.59 E.02596
G1 X116.327 Y107.633 E.02596
G1 X117.145 Y107.762 E.02596
G1 X117.944 Y107.977 E.02596
G1 X118.717 Y108.273 E.02596
G1 X119.455 Y108.649 E.02596
G1 X120.15 Y109.1 E.02596
G1 X120.793 Y109.621 E.02596
G1 X121.379 Y110.207 E.02596
G1 X121.9 Y110.85 E.02596
G1 X122.351 Y111.545 E.02596
G1 X122.727 Y112.283 E.02596
G1 X123.023 Y113.056 E.02596
G1 X123.238 Y113.855 E.02596
G1 X123.367 Y114.673 E.02596
G1 X123.41 Y115.5 E.02596
G1 X123.367 Y116.327 E.02596
G1 X123.238 Y117.145 E.02596
G1 X123.023 Y117.944 E.02596
G1 X122.727 Y118.717 E.02596
G1 X122.351 Y119.455 E.02596
G1 X121.9 Y120.15 E.02596
G1 X121.379 Y120.793 E.02596
G1 X120.793 Y121.379 E.02596
G1 X120.15 Y121.9 E.02596
G1 X119.455 Y122.351 E.02596
G1 X118.717 Y122.727 E.02596
G1 X117.944 Y123.023 E.02596
G1 X117.145 Y123.238 E.02596
G1 X116.327 Y123.367 E.02596
G1 X115.5 Y123.41 E.02596
G1 X114.673 Y123.367 E.02596
G1 X113.855 Y123.238 E.02596
G1 X113.056 Y123.023 E.02596
G1 X112.283 Y122.727 E.02596
G1 X111.545 Y122.351 E.02596
G1 X110.85 Y121.9 E.02596
G1 X110.207 Y121.379 E.02596
G1 X109.621 Y120.793 E.02596
G1 X109.1 Y120.15 E.02596
G1 X108.649 Y119.455 E.02596
G1 X108.273 Y118.717 E.02596
G1 X107.977 Y117.944 E.02596
G1 X107.762 Y117.145 E.02596
G1 X107.633 Y116.327 E.02596
G1 X107.59 Y115.5 E.02596
G1 X107.633 Y114.673 E.02596
G1 X107.762 Y113.855 E.02596
G1 X107.977 Y113.056 E.02596
G1 X108.273 Y112.283 E.02596
G1 X108.649 Y111.545 E.02596
G1 X109.1 Y110.85 E.02596
G1 X109.584 Y110.254 E.02408
G1 X109.498 Y109.826 F9000
G1 X108.534 Y109.326
;TYPE:Perimeter
G1 F1200
G1 X109.269 Y108.58 E.03285
G1 X110.027 Y107.966 E.03056
G1 X110.844 Y107.436 E.03056
G1 X111.712 Y106.993 E.03056
G1 X112.622 Y106.644 E.03056
G1 X113.564 Y106.392 E.03056
G1 X114.527 Y106.239 E.03056
G1 X115.5 Y106.188 E.03056
G1 X116.473 Y106.239 E.03056
G1 X117.436 Y106.392 E.03056
G1 X118.378 Y106.644 E.03056
G1 X119.288 Y106.993 E.03056
G1 X120.156 Y107.436 E.03056
G1 X120.973 Y107.966 E.03056
G1 X121.731 Y108.58 E.03056
G1 X122.42 Y109.269 E.03056
G1 X123.034 Y110.027 E.03056
G1 X123.564 Y110.844 E.03056
G1 X124.007 Y111.712 E.03056
G1 X124.356 Y112.622 E.03056
G1 X124.608 Y113.564 E.03056
G1 X124.761 Y114.527 E.03056
G1 X124.812 Y115.5 E.03056
G1 X124.761 Y116.473 E.03056
G1 X124.608 Y117.436 E.03056
G1 X124.356 Y118.378 E.03056
G1 X124.007 Y119.288 E.03056
G1 X123.564 Y120.156 E.03056
G1 X123.034 Y120.973 E.03056
G1 X122.42 Y121.731 E.03056
G1 X121.731 Y122.42 E.03056
G1 X120.973 Y123.034 E.03056
G1 X120.156 Y123.564 E.03056
G1 X119.288 Y124.007 E.03056
G1 X118.378 Y124.356 E.03056
G1 X117.436 Y124.608 E.03056
G1 X116.473 Y124.761 E.03056
G1 X115.5 Y124.812 E.03056
G1 X114.527 Y124.761 E.03056
G1 X113.564 Y124.608 E.03056
G1 X112.622 Y124.356 E.03056
G1 X111.712 Y124.007 E.03056
G1 X110.844 Y123.564 E.03056
G1 X110.027 Y123.034 E.03056
G1 X109.269 Y122.42 E.03056
G1 X108.58 Y121.731 E.03056
G1 X107.966 Y120.973 E.03056
G1 X107.436 Y120.156 E.03056
G1 X106.993 Y119.288 E.03056
G1 X106.644 Y118.378 E.03056
G1 X106.392 Y117.436 E.03056
G1 X106.239 Y116.473 E.03056
G1 X106.188 Y115.5 E.03056
G1 X106.239 Y114.527 E.03056
G1 X106.392 Y113.564 E.03056
G1 X106.644 Y112.622 E.03056
G1 X106.993 Y111.712 E.03056
G1 X107.436 Y110.844 E.03056
G1 X107.966 Y110.027 E.03056
G1 X108.496 Y109.373 E.02638
G1 X108.241 Y109.089 F9000
;TYPE:External perimeter
G1 F1200
G1 X109.016 Y108.299 E.03471
G1 X109.805 Y107.661 E.0318
G1 X110.655 Y107.109 E.0318
G1 X111.559 Y106.648 E.0318
G1 X112.506 Y106.285 E.0318
G1 X113.485 Y106.022 E.0318
G1 X114.487 Y105.864 E.0318
G1 X115.5 Y105.81 E.0318
G1 X116.513 Y105.864 E.0318
G1 X117.515 Y106.022 E.0318
G1 X118.494 Y106.285 E.0318
G1 X119.441 Y106.648 E.0318
G1 X120.345 Y107.109 E.0318
G1 X121.195 Y107.661 E.0318
G1 X121.984 Y108.299 E.0318
G1 X122.701 Y109.016 E.0318
G1 X123.339 Y109.805 E.0318
G1 X123.891 Y110.655 E.0318
G1 X124.352 Y111.559 E.0318
G1 X124.715 Y112.506 E.0318
G1 X124.978 Y113.485 E.0318
G1 X125.136 Y114.487 E.0318
G1 X125.19 Y115.5 E.0318
G1 X125.136 Y116.513 E.0318
G1 X124.978 Y117.515 E.0318
G1 X124.715 Y118.494 E.0318
G1 X124.352 Y119.441 E.0318
G1 X123.891 Y120.345 E.0318
G1 X123.339 Y121.195 E.0318
G1 X122.701 Y121.984 E.0318
G1 X121.984 Y122.701 E.0318
G1 X121.195 Y123.339 E.0318
G1 X120.345 Y123.891 E.0318
G1 X119.441 Y124.352 E.0318
G1 X118.494 Y124.715 E.0318
G1 X117.515 Y124.978 E.0318
G1 X116.513 Y125.136 E.0318
G1 X115.5 Y125.19 E.0318
G1 X114.487 Y125.136 E.0318
G1 X113.485 Y124.978 E.0318
G1 X112.506 Y124.715 E.0318
G1 X111.559 Y124.352 E.0318
G1 X110.655 Y123.891 E.0318
G1 X109.805 Y123.339 E.0318
G1 X109.016 Y122.701 E.0318
G1 X108.299 Y121.984 E.0318
G1 X107.661 Y121.195 E.0318
G1 X107.109 Y120.345 E.0318
G1 X106.648 Y119.441 E.0318
G1 X106.285 Y118.494 E.0318
G1 X106.022 Y117.515 E.0318
G1 X105.864 Y116.513 E.0318
G1 X105.81 Y115.5 E.0318
G1 X105.864 Y114.487 E.0318
G1 X106.022 Y113.485 E.0318
G1 X106.285 Y112.506 E.0318
G1 X106.648 Y111.559 E.0318
G1 X107.109 Y110.655 E.0318
G1 X107.661 Y109.805 E.0318
G1 X108.203 Y109.135 E.027
G1 X108.632 Y109.169 F9000
G1 E-3.5 F3600
;WIPE_START
G1 F7200
G1 X109.016 Y108.299 E-.55414
G1 X109.805 Y107.661 E-.48176
G1 X110.492 Y107.215 E-.3891
;WIPE_END
G1 E-.075 F3600
G1 X120.615 Y107.869 F9000
G1 E5 F2400
;TYPE:Solid infill
;WIDTH:0.42646
G1 F1200
G1 X122.229 Y109.483 E.07281
G1 X122.804 Y110.193 E.02914
G1 X123.319 Y110.986 E.03014
G1 X123.454 Y111.25 E.00945
G1 X119.75 Y107.546 E.16702
G1 X119.172 Y107.252 E.02069
G1 X118.752 Y107.091 E.01435
G1 X119.69 Y108.029 E.0423
G1 X120.538 Y108.566 E.03201
G1 X121.235 Y109.13 E.02861
G1 X121.87 Y109.765 E.02861
G1 X122.434 Y110.462 E.02861
G1 X122.971 Y111.31 E.03201
G1 X124.204 Y112.543 E.05561
G1 X123.147 Y112.027 F9000
G1 F1200
G1 X124.181 Y113.062 E.04666
G1 X124.331 Y113.623 E.01852
G1 X124.356 Y113.779 E.00506
G1 X123.734 Y113.157 E.02809
G1 X123.884 Y113.718 E.01853
G1 X123.909 Y113.874 E.00505
G1 X124.458 Y114.424 E.02479
G1 X124.503 Y115.011 E.01878
G1 X124.011 Y114.519 E.02221
G1 X124.05 Y115.101 E.0186
G1 X124.525 Y115.575 E.0214
G1 X124.498 Y116.091 E.01646
G1 X124.063 Y115.656 E.01961
G1 X124.036 Y116.171 E.01646
G1 X124.456 Y116.591 E.01894
G1 X124.382 Y117.059 E.01512
G1 X123.982 Y116.66 E.01801
G1 X123.908 Y117.128 E.01512
G1 X124.295 Y117.515 E.01743
G1 X124.18 Y117.942 E.01412
G1 X123.807 Y117.569 E.01683
G1 X123.692 Y117.997 E.01412
G1 X124.059 Y118.363 E.01652
G1 X123.908 Y118.755 E.01339
G1 X123.555 Y118.402 E.01595
G1 X123.404 Y118.794 E.01339
G1 X123.758 Y119.147 E.01595
G1 X123.748 Y119.172 E.00085
G1 X123.577 Y119.509 E.01204
G1 X123.237 Y119.169 E.01532
G1 X123.054 Y119.528 E.01286
G1 X123.394 Y119.868 E.01532
G1 X123.319 Y120.014 E.00524
G1 X123.193 Y120.209 E.00741
G1 X122.862 Y119.879 E.0149
G1 X122.649 Y120.208 E.0125
G1 X122.979 Y120.538 E.0149
G1 X122.76 Y120.862 E.01246
G1 X122.435 Y120.537 E.01466
G1 X122.193 Y120.837 E.0123
G1 X122.517 Y121.161 E.01465
G1 X122.275 Y121.461 E.0123
G1 X121.95 Y121.136 E.01465
G1 X121.688 Y121.417 E.01224
G1 X122.011 Y121.74 E.01457
G1 X121.74 Y122.011 E.01223
G1 X121.417 Y121.688 E.01457
G1 X121.136 Y121.95 E.01224
G1 X121.461 Y122.275 E.01465
G1 X121.161 Y122.517 E.0123
G1 X120.836 Y122.193 E.01465
G1 X120.537 Y122.435 E.0123
G1 X120.862 Y122.76 E.01466
G1 X120.538 Y122.979 E.01246
G1 X120.208 Y122.649 E.0149
G1 X119.879 Y122.862 E.0125
G1 X120.209 Y123.193 E.0149
G1 X119.868 Y123.394 E.01263
G1 X119.528 Y123.054 E.01532
G1 X119.169 Y123.237 E.01286
G1 X119.509 Y123.577 E.01532
G1 X119.172 Y123.748 E.01204
G1 X119.147 Y123.758 E.00086
G1 X118.794 Y123.404 E.01595
G1 X118.402 Y123.555 E.01339
G1 X118.755 Y123.908 E.01595
G1 X118.363 Y124.059 E.01339
G1 X117.997 Y123.692 E.01652
G1 X117.569 Y123.807 E.01412
G1 X117.942 Y124.18 E.01683
G1 X117.515 Y124.295 E.01412
G1 X117.128 Y123.908 E.01743
G1 X116.66 Y123.982 E.01512
G1 X117.059 Y124.382 E.01801
G1 X116.591 Y124.456 E.01512
G1 X116.171 Y124.036 E.01894
G1 X115.656 Y124.063 E.01646
G1 X116.09 Y124.498 E.01961
G1 X115.575 Y124.525 E.01646
G1 X115.1 Y124.05 E.0214
G1 X114.519 Y124.011 E.0186
G1 X115.011 Y124.503 E.02221
G1 X114.424 Y124.458 E.01878
G1 X113.874 Y123.909 E.02479
G1 X113.718 Y123.884 E.00504
G1 X113.156 Y123.733 E.01854
G1 X113.779 Y124.356 E.02809
G1 X113.623 Y124.331 E.00505
G1 X113.062 Y124.181 E.01852
G1 X112.027 Y123.147 E.04666
G1 E-3.5 F3600
;WIPE_START
G1 F7200
G1 X113.062 Y124.181 E-.695
G1 X113.623 Y124.331 E-.27591
G1 X113.779 Y124.356 E-.07524
G1 X113.215 Y123.792 E-.37884
;WIPE_END
G1 E-.075 F3600
G1 X118.973 Y107.853 F9000
G1 E5 F2400
G1 F1200
G1 X117.938 Y106.819 E.04666
G1 X117.377 Y106.669 E.01852
G1 X117.221 Y106.644 E.00506
G1 X117.843 Y107.266 E.02809
G1 X117.282 Y107.116 E.01853
G1 X117.126 Y107.091 E.00505
G1 X116.576 Y106.542 E.02479
G1 X115.989 Y106.497 E.01878
G1 X116.481 Y106.989 E.02221
G1 X115.899 Y106.95 E.0186
G1 X115.425 Y106.475 E.0214
G1 X114.909 Y106.502 E.01646
G1 X115.344 Y106.937 E.01961
G1 X114.829 Y106.964 E.01646
G1 X114.409 Y106.544 E.01894
G1 X113.941 Y106.618 E.01512
G1 X114.34 Y107.018 E.01801
G1 X113.872 Y107.092 E.01512
G1 X113.485 Y106.705 E.01743
